common/svg/one-time-password-icon.svg

<svg fill="none" height="22" viewBox="0 0 20 22" width="20" xmlns="http://www.w3.org/2000/svg"><path d="m14.2866 15.3415v2.5466c0 1.2584-1.0201 2.2786-2.2785 2.2786h-7.97497c-1.25841 0-2.27855-1.0202-2.27855-2.2786v-13.67128c0-1.25841 1.02014-2.27856 2.27855-2.27856h7.97497c1.2584 0 2.2785 1.02015 2.2785 2.27856v2.54661" stroke="#000" stroke-width="2.01049"/><g fill="#000"><rect height="3.01573" rx="1.00524" transform="matrix(-1 0 0 1 10.8017 1)" width="6.03146"/><path d="m6.58822 13.1294h1.15384l-.11538-1.2692 1.05288.7356.57693-1.0097-1.15385-.5336 1.15385-.5337-.57693-1.00959-1.05288.73559.11538-1.26924h-1.15384l.11538 1.26924-1.05288-.73559-.57693 1.00959 1.15385.5337-1.15385.5336.57693 1.0097 1.05288-.7356z"/><path d="m11.8553 13.1294h1.1539l-.1154-1.2692 1.0529.7356.5769-1.0097-1.1538-.5336 1.1538-.5337-.5769-1.00959-1.0529.73559.1154-1.26924h-1.1539l.1154 1.26924-1.0529-.73559-.5769 1.00959 1.1538.5337-1.1538.5336.5769 1.0097 1.0529-.7356z"/><path d="m17.2438 13.1294h1.1539l-.1154-1.2692 1.0529.7356.5769-1.0097-1.1538-.5336 1.1538-.5337-.5769-1.00959-1.0529.73559.1154-1.26924h-1.1539l.1154 1.26924-1.0529-.73559-.5769 1.00959 1.1539.5337-1.1539.5336.5769 1.0097 1.0529-.7356z"/></g></svg>

<svg width="20" height="22" viewBox="0 0 20 22" fill="none" xmlns="http://www.w3.org/2000/svg">
<path d="M14.2866 15.3415V17.8881C14.2866 19.1465 13.2665 20.1667 12.0081 20.1667H4.03313C2.77472 20.1667 1.75458 19.1465 1.75458 17.8881V4.21682C1.75458 2.95841 2.77472 1.93826 4.03313 1.93826H12.0081C13.2665 1.93826 14.2866 2.95841 14.2866 4.21682V6.76343" stroke="black" stroke-width="2.01049"/>
<rect width="6.03146" height="3.01573" rx="1.00524" transform="matrix(-1 0 0 1 10.8017 1)" fill="black"/>
<path d="M6.58822 13.1294H7.74206L7.62668 11.8602L8.67956 12.5958L9.25649 11.5861L8.10264 11.0525L9.25649 10.5188L8.67956 9.50921L7.62668 10.2448L7.74206 8.97556H6.58822L6.7036 10.2448L5.65072 9.50921L5.07379 10.5188L6.22764 11.0525L5.07379 11.5861L5.65072 12.5958L6.7036 11.8602L6.58822 13.1294Z" fill="black"/>
<path d="M11.8553 13.1294H13.0092L12.8938 11.8602L13.9467 12.5958L14.5236 11.5861L13.3698 11.0525L14.5236 10.5188L13.9467 9.50921L12.8938 10.2448L13.0092 8.97556H11.8553L11.9707 10.2448L10.9178 9.50921L10.3409 10.5188L11.4947 11.0525L10.3409 11.5861L10.9178 12.5958L11.9707 11.8602L11.8553 13.1294Z" fill="black"/>
<path d="M17.2438 13.1294H18.3977L18.2823 11.8602L19.3352 12.5958L19.9121 11.5861L18.7583 11.0525L19.9121 10.5188L19.3352 9.50921L18.2823 10.2448L18.3977 8.97556H17.2438L17.3592 10.2448L16.3063 9.50921L15.7294 10.5188L16.8833 11.0525L15.7294 11.5861L16.3063 12.5958L17.3592 11.8602L17.2438 13.1294Z" fill="black"/>
</svg>
